!!!OTL: Jaegers Unheil.
!!!OTL-incipit: DER JAEGERSMANN TRAT INS HUETTCHEN SEIN
!!!COM: J. F. Reichardt
!!!ARE: Europa, Mitteleuropa, Deutschland
!!!SCT: F0621
!!!TXL: @@DE
!!!YEM: Copyright 1995, estate of Helmut Schaffrath.
**kern	**text
*ICvox	*
*M6/8	*
*k[f#]	*
*e:	*
!LO:TX:a:t=Strophe 5 und 6.	!
{8b/	Der
=1	=1
4b/	Jägersmann
8g	.
8.bL	trat
16aJ	.
8g	in's
=2	=2
4f#	Hüttchen
8f#	.
4g}	ſein,
{8b/	da
=3	=3
4ee/	ſtand
8b/	kein
4g	Mahl
8e	be-
=4	=4
[4.b/	-reit,
8b/]	.
8r}	.
{8b/	da
=5	=5
4b/	fand
8g	er
8.bL	kei-
16aJ	.
8g	-nen
=6	=6
4f#	Be-
8f#	-cher
4g}	Wein,
{8b/	kein
=7	=7
4ee/	Bett
8b/	mit
4g	Blumen
8e	be-
=8	=8
[4.b/	-ſtreut;
8b/]	.
8r}	.
{8b/	ach
=9	=9
8.f#	draußen
16f#	.
8f#	im
8.g	Gar-
16g	-ten
8a	vom
=10	=10
8bL	Thau-
8aJ	.
8g	-e
4f#}	naß,
{8b/	lag
=11	=11
8.f#	un-
16f#	.
8f#	-ter
8.g	Blumen
16g	.
8a	Herz-
=12	=12
8bL	-lieb-
8aJ	.
8g	-chen
4f#}	blaß.
{8g	O
=13	=13
4g	weh,
8b/	o
4b/	weh,
8ee/	o
=14	=14
[4.ee/	weh!
4ee/]}	.
{8a#	Herʒ-
=15	=15
8b/L	-lieb-
8eeJ	.
8b/	-chen,
8aL	ſie
8gJ	.
8f#	war
=16	=16
(4.b/	todt,
8ee/)	.
8r}	.
{8a#	Herʒ-
=17	=17
8b/L	-lieb-
8eeJ	.
8b/	-chen,
8aL	ſie
8gJ	.
8f#	war
=18	=18
[4.e	todt!
8e]	.
8r}	.
==	==
!!!Ag: Staende -, Jaeger - Lied, Unglueck, Tod
!!!ONB: ESAC (Essen Associative Code) Database: FINK
!!!AMT: compound duple
!!!AIN: vox
!!!EED: Helmut Schaffrath
!!!EEV: 1.0
!!Text: Mahlmann. 1802
!!!GTL: Soldaten- und Jaegerlieder
!!!source: Musikalischer Hausschatz der Deutschen. Eine Sammlung von über 1000 Liedern und Gesängen mit Singstimmen und Klavierbegleitung. Leipzig, Litterarisches Verlags-Haus.
!!!page: 406
!!!ENC: Anna Maria Matuszewska
!!!EEV: 2025/03/18
*-	*-
